src/game/GamePart/Arena/Resources/img/Sand.svg

<svg width="34" height="42" fill="none" xmlns="http://www.w3.org/2000/svg"><path d="M32.791 16.539A2.722 2.722 0 0 0 34 14.278v-2.555A2.72 2.72 0 0 0 31.968 9.1C31.744 5.744 30.262 5 29 5c-.91 0-1.541.337-1.982.841-.984-.694-2.19-.887-3.262-.457C23.042 2.257 20.736 0 18.001 0c-2.316 0-4.394 1.666-5.379 4.187a4.171 4.171 0 0 0-1.621-.329c-1.483 0-2.838.782-3.769 2.113-.651-.532-1.426-.828-2.232-.828-2.094 0-3.798 1.971-3.967 4.462A2.705 2.705 0 0 0 0 11.723v2.555c0 .941.481 1.772 1.209 2.261A16.09 16.09 0 0 0 1 19c0 4.301 1.714 8.202 4.484 11.08l1.27 9.208A3.153 3.153 0 0 0 9.865 42h14.269a3.153 3.153 0 0 0 3.111-2.712l1.27-9.208C31.286 27.203 33 23.301 33 19c0-.825-.083-1.648-.209-2.461zm-6.165 12.6C24.114 31.525 20.729 33 17 33c-3.729 0-7.115-1.475-9.626-3.861L5.699 17h22.602l-1.675 12.139zM3.404 15h-.681A.723.723 0 0 1 2 14.278v-2.555c0-.398.324-.723.723-.723h28.555c.398 0 .723.324.723.723v2.555a.724.724 0 0 1-.723.723H3.404V15zM29 7c.643 0 .874 1.062.956 2h-1.924c.139-1.999.707-2 .968-2zM5 7.143c.594 0 1.16.397 1.552 1.092.19.337.559.541.945.505a1 1 0 0 0 .86-.64c.529-1.383 1.542-2.242 2.644-2.242.543 0 1.082.213 1.555.616a1.001 1.001 0 0 0 1.625-.549c.5-2.311 2.071-3.924 3.819-3.924 2.103 0 3.888 2.332 3.98 5.198a1.001 1.001 0 0 0 1.762.614c.259-.306.687-.67 1.257-.67.517 0 .91.297 1.177.589a8.875 8.875 0 0 0-.155 1.269H3.138C3.429 7.929 4.162 7.143 5 7.143zM3 19c0-.671.065-1.339.159-2h.521l1.249 9.058A13.895 13.895 0 0 1 3 19zm22.264 20.015a1.144 1.144 0 0 1-1.13.985H9.866a1.145 1.145 0 0 1-1.13-.985l-.961-6.964a15.894 15.894 0 0 0 18.45 0l-.961 6.964zm3.806-12.957L30.319 17h.521c.095.661.159 1.329.159 2a13.876 13.876 0 0 1-1.929 7.058z" fill="#fff"/></svg>

<svg width="34" height="42" viewBox="0 0 34 42" fill="none" xmlns="http://www.w3.org/2000/svg">
<path d="M32.791 16.539C33.519 16.05 34 15.219 34 14.278V11.723C34 10.462 33.134 9.408 31.968 9.1C31.744 5.744 30.262 5 29 5C28.09 5 27.459 5.337 27.018 5.841C26.034 5.147 24.828 4.954 23.756 5.384C23.042 2.257 20.736 0 18.001 0C15.685 0 13.607 1.666 12.622 4.187C12.105 3.97 11.559 3.858 11.001 3.858C9.518 3.858 8.163 4.64 7.232 5.971C6.581 5.439 5.806 5.143 5 5.143C2.906 5.143 1.202 7.114 1.033 9.605C0.408 10.104 0 10.863 0 11.723V14.278C0 15.219 0.481 16.05 1.209 16.539C1.083 17.352 1 18.175 1 19C1 23.301 2.714 27.202 5.484 30.08L6.754 39.288C6.967 40.834 8.305 42 9.865 42H24.134C25.695 42 27.032 40.834 27.245 39.288L28.515 30.08C31.286 27.203 33 23.301 33 19C33 18.175 32.917 17.352 32.791 16.539ZM26.626 29.139C24.114 31.525 20.729 33 17 33C13.271 33 9.885 31.525 7.374 29.139L5.699 17H28.301L26.626 29.139ZM3.404 15H2.723C2.324 15 2 14.676 2 14.278V11.723C2 11.325 2.324 11 2.723 11H31.278C31.676 11 32.001 11.324 32.001 11.723V14.278C32.001 14.676 31.677 15.001 31.278 15.001H30.596H3.404V15ZM29 7C29.643 7 29.874 8.062 29.956 9H28.032C28.171 7.001 28.739 7 29 7ZM5 7.143C5.594 7.143 6.16 7.54 6.552 8.235C6.742 8.572 7.111 8.776 7.497 8.74C7.883 8.712 8.218 8.462 8.357 8.1C8.886 6.717 9.899 5.858 11.001 5.858C11.544 5.858 12.083 6.071 12.556 6.474C12.824 6.703 13.193 6.771 13.524 6.66C13.857 6.548 14.107 6.268 14.181 5.925C14.681 3.614 16.252 2.001 18 2.001C20.103 2.001 21.888 4.333 21.98 7.199C21.993 7.612 22.26 7.974 22.65 8.111C23.041 8.246 23.474 8.13 23.742 7.813C24.001 7.507 24.429 7.143 24.999 7.143C25.516 7.143 25.909 7.44 26.176 7.732C26.088 8.169 26.042 8.606 26.021 9.001H3.138C3.429 7.929 4.162 7.143 5 7.143ZM3 19C3 18.329 3.065 17.661 3.159 17H3.68L4.929 26.058C3.711 23.983 3 21.576 3 19ZM25.264 39.015C25.187 39.577 24.701 40 24.134 40H9.866C9.299 40 8.813 39.576 8.736 39.015L7.775 32.051C10.385 33.902 13.564 35.001 17 35.001C20.436 35.001 23.615 33.902 26.225 32.051L25.264 39.015ZM29.07 26.058L30.319 17H30.84C30.935 17.661 30.999 18.329 30.999 19C31 21.576 30.289 23.983 29.07 26.058Z" fill="#ffffff"/>
</svg>
